outputs/icons/device/bluetooth_disabled_sharp.svg

<svg xmlns="http://www.w3.org/2000/svg" width="1200" height="1200" fill="none"><g clip-path="url(#a)"><path fill="#000" d="m650 291.5 94 94-80 80 70.5 70.5 151-151L600 100h-50v251.5l100 100zM270.5 200 200 270.5 529.5 600 250 879.5l70.5 70.5L550 720.5V1100h50l214.5-214.5 115 114.5 70.5-70.5zM650 908.5v-188l94 94z"/></g><defs><clipPath id="a"><path fill="#fff" d="M0 0h1200v1200H0z"/></clipPath></defs></svg>

<svg width="1200" height="1200" viewBox="0 0 1200 1200" fill="none" xmlns="http://www.w3.org/2000/svg"><g clip-path="url(#clip0_133_49)"><path d="M650 291.5L744 385.5L664 465.5L734.5 536L885.5 385L600 100H550V351.5L650 451.5V291.5ZM270.5 200L200 270.5L529.5 600L250 879.5L320.5 950L550 720.5V1100H600L814.5 885.5L929.5 1000L1000 929.5L270.5 200ZM650 908.5V720.5L744 814.5L650 908.5Z" fill="#1D1E23"/></g><defs><clipPath id="clip0_133_49"><path width="24" fill="white" d="M0 0H1200V1200H0V0z"/></clipPath></defs></svg>
